X:549
T:
S:Efter »Florsen» i Burs.
R:vals
O:Gotland, Burs
M:3/4
L:1/8
K:A
(A,C) (EA) (ce)|(ac) (df) e2|(fe) (eE) (GB)|(BA) (AE) (CB,)|
(A,C) (EA) (ce)|(ac) (df) e2|(fe) (eE) (GB)|A6::
(cB) (dB) A2|(cB) (dB) A2|(fe) (eE) (GB)|(BA) (EA) (CE)|
(cB) (dB) A2|(cB) (dB) A2|(fe) (eE) (GB)|1 A4 z2:|2 A4 c2
|:(ed) (Bd) (cB)|A2 (Ac) (ea)|(ag)(ge)(gb)|(ba)(ae)(cd)|
(ed)(Bd)(cB)|A2 (Ac)(ea)|(ag) (ge) (gb)|1 a4 c2:|2 a4 z2|]

